X: 26602
T: Mick O'Connor's
R: reel
M: 4/4
K: Dmajor
|:A3E FDED|DEED EFD2|A2DE FABA|dBAF EFDB|
A3G FDED|DEED EFD2|A2DE FABA|1 dBAF EDDB:|2 dBAF EDDA||
|:d3f AffA|edBd edBA|defA defA|eAde fddc|
d2ef AffA|edBd edBd|f3A (3baf af|1 eAde fddc:|2 eAde fdd2||

